assets/img/icon_rocket.svg

<svg width="80" height="80" viewBox="0 0 80 80" fill="none" xmlns="http://www.w3.org/2000/svg">
<g clip-path="url(#clip0)">
<path d="M41.9785 38.0236C41.3676 37.4127 40.3785 37.4127 39.7676 38.0236C39.1582 38.633 39.1582 39.6221 39.7676 40.233C40.3785 40.8424 41.3676 40.8424 41.9785 40.233C42.5879 39.6221 42.5879 38.633 41.9785 38.0236Z" fill="url(#paint0_linear)"/>
<path d="M61.8645 18.136C58.8114 15.083 53.8689 15.0829 50.8156 18.136C47.7705 21.1811 47.7703 26.1374 50.8161 29.185C53.8623 32.2294 58.8185 32.2306 61.8645 29.1847C64.9173 26.1319 64.9179 21.1892 61.8645 18.136ZM59.6548 26.9749C57.8278 28.802 54.8537 28.802 53.0257 26.9752C51.1984 25.1467 51.1983 22.1727 53.0254 20.3457C54.8572 18.5139 57.8228 18.5136 59.6548 20.3457C61.4865 22.1772 61.4868 25.143 59.6548 26.9749Z" fill="url(#paint1_linear)"/>
<path d="M79.5419 0.457671C79.2351 0.150952 78.8163 -0.0152972 78.381 0.00110906C78.0277 0.0137653 69.616 0.35189 59.6168 3.8861C51.6043 6.71516 44.9258 10.7656 39.7665 15.925C38.6105 17.0811 37.4855 18.307 36.4091 19.5806C31.3078 16.5778 27.22 17.5194 24.6358 18.9023C18.6856 22.0867 15.0027 30.7329 15.0027 36.9173C15.0032 37.5492 15.3839 38.119 15.9677 38.3607C16.161 38.4409 16.3641 38.4798 16.5653 38.4798C16.9721 38.4798 17.3716 38.3209 17.6705 38.0221C20.8085 34.8842 24.6789 35.0804 25.9433 35.2467L26.4905 35.7939C25.4136 38.3563 24.5461 40.9045 23.9099 43.3827C23.6802 44.2796 23.7577 45.2287 24.0991 46.0968C22.5947 46.7901 21.1433 47.808 19.8796 49.0718C15.8575 53.094 15.0408 62.8961 15.008 63.3115C14.9721 63.7672 15.1374 64.216 15.4607 64.5393C15.7549 64.8333 16.1528 64.9969 16.5653 64.9969C16.6063 64.9969 16.6474 64.9954 16.6885 64.9921C17.1038 64.9594 26.9063 64.1427 30.9283 60.1207C32.1916 58.8574 33.2094 57.4062 33.9027 55.9021C34.8217 56.2635 35.7676 56.308 36.6183 56.0901C39.0955 55.454 41.6433 54.5868 44.2061 53.5098L44.7533 54.0569C44.9193 55.3215 45.1156 59.1919 41.9778 62.3296C41.5311 62.7765 41.3973 63.4485 41.6392 64.0322C41.8809 64.6161 42.4506 64.9968 43.0826 64.9968C49.267 64.9968 57.9131 61.3138 61.0974 55.3637C62.4804 52.7798 63.422 48.692 60.4192 43.5906C61.6921 42.5146 62.9182 41.3896 64.0748 40.2331C69.2341 35.0737 73.2845 28.3951 76.1135 20.3833C79.6479 10.3836 79.9858 1.97173 79.9985 1.61861C80.0141 1.18501 79.8487 0.764545 79.5419 0.457671ZM18.4961 33.5565C19.4667 28.8592 22.286 23.7047 26.1109 21.6575C28.667 20.2897 31.4609 20.4237 34.4316 22.0498C31.9008 25.3782 29.7006 28.9642 27.8667 32.7509C27.8434 32.7365 27.5622 32.3829 27.0397 32.2651C26.8249 32.2165 22.6906 31.3273 18.4961 33.5565ZM28.7186 57.9108C26.5702 60.0593 21.5303 61.1924 18.3449 61.6551C18.8077 58.4694 19.941 53.4298 22.0892 51.2815C23.2924 50.0784 24.6874 49.1662 26.0895 48.6524L31.3477 53.9105C30.8339 55.3127 29.9219 56.7077 28.7186 57.9108ZM35.842 53.0629C35.3898 53.1787 34.8661 53.0087 34.4767 52.6199C32.4553 50.5985 31.6645 49.8077 31.4164 49.5598C30.9614 49.1048 29.8456 47.989 27.3811 45.5243C26.9914 45.1338 26.8214 44.6102 26.9369 44.1588C27.4374 42.2098 28.0919 40.2101 28.8878 38.1912L41.8089 51.1123C39.7897 51.9084 37.7903 52.5627 35.842 53.0629ZM58.3426 53.8891C56.2954 57.714 51.1411 60.5333 46.4439 61.5038C47.9415 58.6855 48.2717 55.0979 47.7245 52.9224C47.5975 52.4171 47.2678 52.163 47.2493 52.1332C51.0357 50.2993 54.6215 48.0991 57.9503 45.5684C59.5764 48.5393 59.7103 51.3335 58.3426 53.8891ZM61.8654 38.0234C60.4574 39.4312 58.9414 40.7913 57.3592 42.0659C53.5557 45.1284 49.3695 47.7224 44.9033 49.7874L30.2127 35.0971C32.2777 30.6306 34.8717 26.4443 37.9339 22.6414C39.2095 21.0581 40.5695 19.5419 41.9769 18.1347C46.6058 13.5056 52.5798 9.82156 59.7379 7.16969L72.8304 20.2622C70.1788 27.4201 66.4948 33.3942 61.8654 38.0234ZM73.9546 16.9667L63.0334 6.04547C68.9835 4.19735 74.1599 3.50532 76.7437 3.25657C76.4948 5.84079 75.8026 11.0172 73.9546 16.9667Z" fill="url(#paint2_linear)"/>
<path d="M37.5579 64.5388C36.9474 63.9286 35.9581 63.9289 35.3481 64.5391L30.9293 68.9594C30.3193 69.5697 30.3195 70.5591 30.9296 71.1691C31.5401 71.7791 32.5295 71.7791 33.1395 71.1687L37.5582 66.7484C38.1682 66.1381 38.1681 65.1488 37.5579 64.5388Z" fill="url(#paint3_linear)"/>
<path d="M15.4616 42.4424C14.8516 41.8321 13.8624 41.8321 13.2519 42.4421L8.83163 46.8608C8.22132 47.4708 8.22116 48.4602 8.83116 49.0705C9.441 49.6805 10.4302 49.6811 11.0408 49.0708L15.4611 44.6521C16.0715 44.0421 16.0716 43.0527 15.4616 42.4424Z" fill="url(#paint4_linear)"/>
<path d="M26.5098 66.7499C25.9 66.1397 24.9105 66.1397 24.3002 66.7497L13.7158 77.3325C13.1055 77.9427 13.1055 78.932 13.7157 79.5422C14.3255 80.1524 15.315 80.1527 15.9253 79.5423L26.5097 68.9596C27.12 68.3494 27.12 67.36 26.5098 66.7499Z" fill="url(#paint5_linear)"/>
<path d="M14.0098 66.7499C13.3998 66.1397 12.4103 66.1397 11.8002 66.7497L1.21581 77.3325C0.605498 77.9427 0.605498 78.932 1.21565 79.5422C1.8255 80.1524 2.81503 80.1527 3.42534 79.5423L14.0097 68.9596C14.62 68.3494 14.62 67.36 14.0098 66.7499Z" fill="url(#paint6_linear)"/>
<path d="M13.2503 53.4902C12.6403 52.8802 11.6508 52.8802 11.0406 53.4903L0.457841 64.0747C-0.152314 64.685 -0.152314 65.6742 0.457997 66.2845C1.06815 66.8947 2.05753 66.8947 2.66768 66.2844L13.2505 55.7C13.8606 55.0897 13.8606 54.1005 13.2503 53.4902Z" fill="url(#paint7_linear)"/>
<path d="M48.6066 31.3937C47.9962 30.7835 47.0072 30.7835 46.3967 31.3937L44.1874 33.603C43.5772 34.2132 43.5772 35.2025 44.1874 35.8129C44.7977 36.423 45.7869 36.423 46.3972 35.8129L48.6066 33.6035C49.2167 32.9933 49.2167 32.004 48.6066 31.3937Z" fill="url(#paint8_linear)"/>
</g>
<defs>
<linearGradient id="paint0_linear" x1="39.2559" y1="39.1277" x2="42.4355" y2="39.1277" gradientUnits="userSpaceOnUse">
<stop stop-color="#3494E6"/>
<stop offset="1" stop-color="#EC6EAD"/>
</linearGradient>
<linearGradient id="paint1_linear" x1="48.2583" y1="23.6575" x2="64.1543" y2="23.6575" gradientUnits="userSpaceOnUse">
<stop stop-color="#3494E6"/>
<stop offset="1" stop-color="#EC6EAD"/>
</linearGradient>
<linearGradient id="paint2_linear" x1="13.8652" y1="32.4985" x2="79.9995" y2="32.4985" gradientUnits="userSpaceOnUse">
<stop stop-color="#3494E6"/>
<stop offset="1" stop-color="#EC6EAD"/>
</linearGradient>
<linearGradient id="paint3_linear" x1="30.3399" y1="67.8539" x2="38.0156" y2="67.8539" gradientUnits="userSpaceOnUse">
<stop stop-color="#3494E6"/>
<stop offset="1" stop-color="#EC6EAD"/>
</linearGradient>
<linearGradient id="paint4_linear" x1="8.24174" y1="45.7564" x2="15.919" y2="45.7564" gradientUnits="userSpaceOnUse">
<stop stop-color="#3494E6"/>
<stop offset="1" stop-color="#EC6EAD"/>
</linearGradient>
<linearGradient id="paint5_linear" x1="13.0181" y1="73.1461" x2="26.9674" y2="73.1461" gradientUnits="userSpaceOnUse">
<stop stop-color="#3494E6"/>
<stop offset="1" stop-color="#EC6EAD"/>
</linearGradient>
<linearGradient id="paint6_linear" x1="0.518142" y1="73.1461" x2="14.4674" y2="73.1461" gradientUnits="userSpaceOnUse">
<stop stop-color="#3494E6"/>
<stop offset="1" stop-color="#EC6EAD"/>
</linearGradient>
<linearGradient id="paint7_linear" x1="-0.239643" y1="59.8874" x2="13.7081" y2="59.8874" gradientUnits="userSpaceOnUse">
<stop stop-color="#3494E6"/>
<stop offset="1" stop-color="#EC6EAD"/>
</linearGradient>
<linearGradient id="paint8_linear" x1="43.6364" y1="33.6033" x2="49.0642" y2="33.6033" gradientUnits="userSpaceOnUse">
<stop stop-color="#3494E6"/>
<stop offset="1" stop-color="#EC6EAD"/>
</linearGradient>
<clipPath id="clip0">
<rect width="80" height="80" fill="white"/>
</clipPath>
</defs>
</svg>

<svg width="80" height="80" fill="none" xmlns="http://www.w3.org/2000/svg"><g clip-path="url(#clip0)"><path d="M41.978 38.024a1.563 1.563 0 10-2.21 2.209 1.563 1.563 0 002.21-2.21z" fill="url(#paint0_linear)"/><path d="M61.864 18.136a7.81 7.81 0 00-11.048 0c-3.046 3.045-3.046 8.001 0 11.049 3.046 3.044 8.002 3.046 11.048 0a7.809 7.809 0 000-11.049zm-2.21 8.839a4.694 4.694 0 01-6.628 0 4.694 4.694 0 010-6.63 4.685 4.685 0 016.629 0 4.685 4.685 0 010 6.63z" fill="url(#paint1_linear)"/><path d="M79.542.458A1.557 1.557 0 0078.38 0c-.353.013-8.765.35-18.764 3.885-8.013 2.83-14.691 6.88-19.85 12.039a59.485 59.485 0 00-3.358 3.656c-5.101-3.003-9.189-2.062-11.773-.679-5.95 3.185-9.633 11.83-9.633 18.015a1.563 1.563 0 002.668 1.105c3.137-3.138 7.008-2.942 8.272-2.775l.547.547a54.946 54.946 0 00-2.58 7.589 4.423 4.423 0 00.19 2.714c-1.505.693-2.957 1.711-4.22 2.975-4.022 4.022-4.84 13.824-4.872 14.24a1.563 1.563 0 001.68 1.68c.416-.033 10.218-.85 14.24-4.871 1.264-1.264 2.281-2.715 2.975-4.219a4.413 4.413 0 002.715.188 54.968 54.968 0 007.588-2.58l.547.547c.166 1.264.363 5.135-2.775 8.273a1.562 1.562 0 001.105 2.667c6.184 0 14.83-3.683 18.014-9.633 1.383-2.584 2.325-6.672-.678-11.773a59.55 59.55 0 003.656-3.358c5.16-5.16 9.21-11.838 12.038-19.85 3.535-10 3.873-18.411 3.886-18.764a1.562 1.562 0 00-.457-1.161zM18.496 33.557c.97-4.698 3.79-9.852 7.615-11.9 2.556-1.367 5.35-1.233 8.32.393a63.175 63.175 0 00-6.564 10.7c-.024-.014-.305-.367-.827-.485-.215-.048-4.35-.938-8.544 1.291zM28.72 57.91c-2.149 2.148-7.189 3.281-10.374 3.744.463-3.186 1.596-8.225 3.744-10.373 1.203-1.204 2.598-2.116 4-2.63l5.259 5.258c-.514 1.403-1.426 2.798-2.63 4zm7.123-4.848c-.452.116-.976-.054-1.365-.443l-3.06-3.06-4.036-4.036c-.39-.39-.56-.914-.444-1.365a50.75 50.75 0 011.95-5.968L41.81 51.112a50.706 50.706 0 01-5.967 1.95zm22.5.826c-2.047 3.825-7.2 6.644-11.898 7.615 1.497-2.819 1.828-6.406 1.28-8.582-.127-.505-.456-.759-.475-.789a63.207 63.207 0 0010.701-6.565c1.626 2.971 1.76 5.766.393 8.321zm3.523-15.866a56.732 56.732 0 01-4.506 4.043 60.033 60.033 0 01-12.456 7.721l-14.69-14.69a60.02 60.02 0 017.72-12.456 56.685 56.685 0 014.044-4.506c4.629-4.63 10.603-8.313 17.76-10.965L72.83 20.262c-2.651 7.158-6.335 13.132-10.965 17.761zm12.09-21.056L63.033 6.045c5.95-1.848 11.127-2.54 13.71-2.788-.248 2.584-.94 7.76-2.788 13.71z" fill="url(#paint2_linear)"/><path d="M37.558 64.539c-.61-.61-1.6-.61-2.21 0l-4.419 4.42a1.563 1.563 0 002.21 2.21l4.42-4.42c.61-.61.61-1.6-.001-2.21z" fill="url(#paint3_linear)"/><path d="M15.462 42.442c-.61-.61-1.6-.61-2.21 0l-4.42 4.419a1.563 1.563 0 002.209 2.21l4.42-4.419c.61-.61.61-1.6 0-2.21z" fill="url(#paint4_linear)"/><path d="M26.51 66.75c-.61-.61-1.6-.61-2.21 0L13.716 77.332a1.562 1.562 0 102.21 2.21L26.51 68.96c.61-.61.61-1.6 0-2.21z" fill="url(#paint5_linear)"/><path d="M14.01 66.75c-.61-.61-1.6-.61-2.21 0L1.216 77.332a1.562 1.562 0 102.21 2.21L14.01 68.96c.61-.61.61-1.6 0-2.21z" fill="url(#paint6_linear)"/><path d="M13.25 53.49c-.61-.61-1.6-.61-2.21 0L.459 64.075a1.563 1.563 0 002.21 2.21L13.25 55.7c.61-.61.61-1.6 0-2.21z" fill="url(#paint7_linear)"/><path d="M48.607 31.394c-.61-.61-1.6-.61-2.21 0l-2.21 2.209a1.563 1.563 0 002.21 2.21l2.21-2.21c.61-.61.61-1.599 0-2.21z" fill="url(#paint8_linear)"/></g><defs><linearGradient id="paint0_linear" x1="39.256" y1="39.128" x2="42.435" y2="39.128" gradientUnits="userSpaceOnUse"><stop stop-color="#3494E6"/><stop offset="1" stop-color="#EC6EAD"/></linearGradient><linearGradient id="paint1_linear" x1="48.258" y1="23.657" x2="64.154" y2="23.657" gradientUnits="userSpaceOnUse"><stop stop-color="#3494E6"/><stop offset="1" stop-color="#EC6EAD"/></linearGradient><linearGradient id="paint2_linear" x1="13.865" y1="32.498" x2="79.999" y2="32.498" gradientUnits="userSpaceOnUse"><stop stop-color="#3494E6"/><stop offset="1" stop-color="#EC6EAD"/></linearGradient><linearGradient id="paint3_linear" x1="30.34" y1="67.854" x2="38.016" y2="67.854" gradientUnits="userSpaceOnUse"><stop stop-color="#3494E6"/><stop offset="1" stop-color="#EC6EAD"/></linearGradient><linearGradient id="paint4_linear" x1="8.242" y1="45.756" x2="15.919" y2="45.756" gradientUnits="userSpaceOnUse"><stop stop-color="#3494E6"/><stop offset="1" stop-color="#EC6EAD"/></linearGradient><linearGradient id="paint5_linear" x1="13.018" y1="73.146" x2="26.967" y2="73.146" gradientUnits="userSpaceOnUse"><stop stop-color="#3494E6"/><stop offset="1" stop-color="#EC6EAD"/></linearGradient><linearGradient id="paint6_linear" x1=".518" y1="73.146" x2="14.467" y2="73.146" gradientUnits="userSpaceOnUse"><stop stop-color="#3494E6"/><stop offset="1" stop-color="#EC6EAD"/></linearGradient><linearGradient id="paint7_linear" x1="-.24" y1="59.887" x2="13.708" y2="59.887" gradientUnits="userSpaceOnUse"><stop stop-color="#3494E6"/><stop offset="1" stop-color="#EC6EAD"/></linearGradient><linearGradient id="paint8_linear" x1="43.636" y1="33.603" x2="49.064" y2="33.603" gradientUnits="userSpaceOnUse"><stop stop-color="#3494E6"/><stop offset="1" stop-color="#EC6EAD"/></linearGradient><clipPath id="clip0"><path fill="#fff" d="M0 0h80v80H0z"/></clipPath></defs></svg>
